F[ERK1
CUT[ES WOLLTE EIN MAEDCHEN IN DER FRUEH AUFSTEHN]
REG[Europa, Mitteleuropa, Deutschland, Taunus; Rheinland]
KEY[E0096E 08  F 3/4]
MEL[-5_  3_3_2_  1_1_
    66  5_.43_  2__0_
    5_5_5_  3_.45_
    654321  2_.34_
    5_3_2_  1__0_
    5_5_5_  3_.45_
    654321  2_.34_
    5_3_2_  1__ //] >>
FCT[erzaehlendes Volks - Lied, Sage, Liebe, Leid, Tod
    Ballade ?]
